src/assets/media/svg/sprite/delete.svg

<svg width="24" height="24" viewBox="0 0 24 24" xmlns="http://www.w3.org/2000/svg">
<path d="M21.75 3.75H16.5V0H6V3.75H0.75C0.551088 3.75 0.360322 3.82902 0.21967 3.96967C0.0790176 4.11032 0 4.30109 0 4.5C0 4.69891 0.0790176 4.88968 0.21967 5.03033C0.360322 5.17098 0.551088 5.25 0.75 5.25H2.25V24H20.25V5.25H21.75C21.9489 5.25 22.1397 5.17098 22.2803 5.03033C22.421 4.88968 22.5 4.69891 22.5 4.5C22.5 4.30109 22.421 4.11032 22.2803 3.96967C22.1397 3.82902 21.9489 3.75 21.75 3.75ZM7.5 1.5H15V3.75H7.5V1.5ZM8.25 19.5C8.25 19.6989 8.17098 19.8897 8.03033 20.0303C7.88968 20.171 7.69891 20.25 7.5 20.25C7.30109 20.25 7.11032 20.171 6.96967 20.0303C6.82902 19.8897 6.75 19.6989 6.75 19.5V8.25C6.75 8.05109 6.82902 7.86032 6.96967 7.71967C7.11032 7.57902 7.30109 7.5 7.5 7.5C7.69891 7.5 7.88968 7.57902 8.03033 7.71967C8.17098 7.86032 8.25 8.05109 8.25 8.25V19.5ZM12 19.5C12 19.6989 11.921 19.8897 11.7803 20.0303C11.6397 20.171 11.4489 20.25 11.25 20.25C11.0511 20.25 10.8603 20.171 10.7197 20.0303C10.579 19.8897 10.5 19.6989 10.5 19.5V8.25C10.5 8.05109 10.579 7.86032 10.7197 7.71967C10.8603 7.57902 11.0511 7.5 11.25 7.5C11.4489 7.5 11.6397 7.57902 11.7803 7.71967C11.921 7.86032 12 8.05109 12 8.25V19.5ZM15.75 19.5C15.75 19.6989 15.671 19.8897 15.5303 20.0303C15.3897 20.171 15.1989 20.25 15 20.25C14.8011 20.25 14.6103 20.171 14.4697 20.0303C14.329 19.8897 14.25 19.6989 14.25 19.5V8.25C14.25 8.05109 14.329 7.86032 14.4697 7.71967C14.6103 7.57902 14.8011 7.5 15 7.5C15.1989 7.5 15.3897 7.57902 15.5303 7.71967C15.671 7.86032 15.75 8.05109 15.75 8.25V19.5Z"/>
</svg>

<svg xmlns="http://www.w3.org/2000/svg" width="24" height="24"><path d="M21.75 3.75H16.5V0H6v3.75H.75a.75.75 0 0 0 0 1.5h1.5V24h18V5.25h1.5a.75.75 0 1 0 0-1.5M7.5 1.5H15v2.25H7.5zm.75 18a.75.75 0 1 1-1.5 0V8.25a.75.75 0 0 1 1.5 0zm3.75 0a.75.75 0 1 1-1.5 0V8.25a.75.75 0 1 1 1.5 0zm3.75 0a.75.75 0 1 1-1.5 0V8.25a.75.75 0 1 1 1.5 0z"/></svg>
